X:1
T:Title
%%score { ( 1 3 ) | ( 2 4 ) }
L:1/8
Q:1/4=100
M:4/4
K:Bb
V:1 treble nm="Grand Piano"
V:3 treble 
V:2 bass 
V:4 bass 
V:1
 [DB]2 [Dd][DB] [CA]2 [Dd][DA] | [DG]2 [DG]2 [DF]2 [DB]2 | %2
w: I.~H.~Meredith * * * * *||
 [EA]2 z z/ (3:2:2z/ =e/4 z z/ z/4 =e'/4 f'2 | [DB]2 z z/ (3:2:2z/ =e/4 z z/ z/4 =e'/4 f'2 | %4
w: ||
 [DB]2 [Dd][DB] [DA]2 [Dd][DA] | [DG]2 [DG]2 [DF]2 [DG]2 | [CA]2 [Fc]2 [Fd][Fc][CFA][A,CF] | %7
w: |||
 [C=EA]2 [B,EG]2 [A,CF]4 | d4 d4 | z4 [Ae]4 | [df]2 [df]2 [ce]2 [Ae]2 | z4 [Fd]4 | %12
w: |||||
 [Bd]2 [Bd]2 [Fd]2 [G_d]2 | .[Ac]2 c-[Bc] [Ac]2 [Fc]2 | [D=B]4 [=E_B]4 | [FA]2 g2 f2 e2 | %16
w: ||||
 B2 z2 d4 | z4 [Ae]4 | [df]2 [df]2 [ce]2 [Ae]2 | z4 [Fd]4 | [Bd]2 [Bd]2 [Af]2 [Af]2 | %21
w: |||||
 .[Ge]2 .[Ge]2 .[ce]2 .[Ae]2 |[M:9/8] [Fd]2 [Bd]- [Bd] [G=e]2 [ce]3 |[M:4/4] [df]2 [ce]2 [Bd]4 |] %24
w: |||
V:2
 [B,,F,]2 [F,,F,]2 [B,,F,]2 [F,,F,]2 | [B,,F,]2 [F,,F,]2 [B,,F,]2 [F,,F,]2 | %2
 [C,F,]2 [F,,F,]2 [C,F,]2 [F,,F,]2 | [B,,F,]2 [F,,F,]2 [B,,F,]2 [F,,F,]2 | %4
 [B,,F,]2 [F,,F,]2 [B,,F,]2 [F,,F,]2 | [B,,F,]2 [F,,F,]2 [B,,F,]2 [=B,,F,]2 | %6
 [C,F,]2 [C,A,]2 [C,B,][C,A,]C,C, | C,2 C,2 F,4 | B,,2 F,2 B,,2 F,2 | %9
 z[K:treble] c z B[K:bass] F,,2 F,2 | F,,2 [F,A,E]2 F,,2 [F,C]2 | B,,2 [F,B,D]2 [F,B,D]2 F,2 | %12
 B,,2 [F,B,D]2 B,,2 [F,B,]2 | z _A [F,A,C]2 [F,A,C]2 [F,A,C]2 | G,,2 D,2 C,,2 C,2 | %15
 z2[K:treble] e2 d2 c2 | B,,2 F,2 B,,2 F,2 | z[K:treble] c z B[K:bass] F,,2 F,2 | %18
 F,,2 [F,A,E]2 F,,2 [F,C]2 | B,,2 [F,B,D]2 [F,B,D]2 F,2 | B,,2 [F,B,D]2 B,,2 [F,B,D]2 | %21
 z[K:treble] ^F z A[K:bass] z[K:treble] B z G | %22
[M:9/8][K:bass] F,,2 [F,B,D]- [F,B,D] C,,2 [G,C=E]3 |[M:4/4] [F,,F,]2 [F,,F,]2 [B,,,B,,]4 |] %24
V:3
 x8 | x8 | z2 [Ec]2 f2 z2 | z2 [Fd]2 f2 z2 | x8 | x8 | x8 | x8 | B2 [B,DA]2 G2 [B,DB]2 | %9
 .[Ae]2 .[Ge]2 z2 [CE]2 | x8 | [ce]2 [Bd]2 z2 [B,D]2 | x8 | z2 .A2 z4 | z2 G,2 z2 G,2 | x8 | %16
 d2- [B,DAd]2 G2 [B,DB]2 | .[Ae]2 .[Ge]2 z2 [CE]2 | x8 | [ce]2 [Bd]2 z2 [B,D]2 | x8 | x8 | %22
[M:9/8] x9 |[M:4/4] x8 |] %24
V:4
 x8 | x8 | x8 | x8 | x8 | x8 | x8 | x8 | x8 | C,2[K:treble] [F,CE]2[K:bass] z4 | x8 | x8 | x8 | %13
 C,2 z2 z4 | x8 | [F,,F,]6[K:treble] z2 | x8 | C,2[K:treble] [F,CE]2[K:bass] z4 | x8 | x8 | x8 | %21
 E,,2[K:treble] [E,B,]2[K:bass] E,,2[K:treble] [E,B,]2 |[M:9/8][K:bass] x9 |[M:4/4] x8 |] %24

